ui/StatusQ/src/assets/img/icons/sign-blue.svg

<svg fill="none" height="16" viewBox="0 0 16 16" width="16" xmlns="http://www.w3.org/2000/svg"><circle cx="8" cy="8" fill="#2946c4" r="8"/><path d="m6.30417 8.87295c-.62778-.31054-1.36061-.87191-1.83799-1.53833-.75048-1.04766-.97071-2.32837.06871-3.09936.77891-.57775 2.08135.14348 2.57659 1.2616.65993 1.48982.54972 3.78742-.67851 5.72944-.61746.9763-1.56903.8779-1.89808.3168-.45426-.7746.01656-2.46913 2.17779-3.54974 1.88636-.94317 2.41457-.4653 2.30551.04649-.03849.18062-.46379.91899.10307.91899.4886 0 .90904-.60484 1.30554-.91899.505-.40026 1.0306-.52392.9669.22948-.0238.2816.0981.88705.7852.5435" stroke="#fff" stroke-linecap="round" stroke-width=".833333"/></svg>

<svg width="16" height="16" viewBox="0 0 16 16" fill="none" xmlns="http://www.w3.org/2000/svg">
<circle cx="8" cy="8" r="8" fill="#2946C4"/>
<path d="M6.30417 8.87295C5.67639 8.56241 4.94356 8.00104 4.46618 7.33462C3.7157 6.28696 3.49547 5.00625 4.53489 4.23526C5.3138 3.65751 6.61624 4.37874 7.11148 5.49686C7.77141 6.98668 7.6612 9.28428 6.43297 11.2263C5.81551 12.2026 4.86394 12.1042 4.53489 11.5431C4.08063 10.7685 4.55145 9.07397 6.71268 7.99336C8.59904 7.05019 9.12725 7.52806 9.01819 8.03985C8.9797 8.22047 8.5544 8.95884 9.12126 8.95884C9.60986 8.95884 10.0303 8.354 10.4268 8.03985C10.9318 7.63959 11.4574 7.51593 11.3937 8.26933C11.3699 8.55093 11.4918 9.15638 12.1789 8.81283" stroke="white" stroke-width="0.833333" stroke-linecap="round"/>
</svg>
